project/img/contact-icon-2.svg

<svg width="19" height="19" viewBox="0 0 19 19" fill="none" xmlns="http://www.w3.org/2000/svg">
<path d="M17.4832 13.022C17.8347 13.1626 18.0105 13.4204 18.0105 13.7954C18.0105 13.8657 17.9988 13.9243 17.9753 13.9712L17.1316 17.6274C17.1082 17.7446 17.0496 17.8501 16.9558 17.9438C16.8855 18.061 16.7917 18.1431 16.6746 18.1899C16.5574 18.2603 16.4402 18.2954 16.323 18.2954C11.823 18.2954 7.97925 16.7017 4.79175 13.5142C1.60425 10.3267 0.010498 6.48291 0.010498 1.98291C0.010498 1.86572 0.0339355 1.74854 0.0808105 1.63135C0.151123 1.51416 0.233154 1.42041 0.326904 1.3501C0.444092 1.25635 0.561279 1.19775 0.678467 1.17432L4.33472 0.330566C4.38159 0.307129 4.44019 0.29541 4.5105 0.29541C4.8855 0.29541 5.14331 0.471191 5.28394 0.822754L6.97144 4.76025C7.01831 4.854 7.04175 4.95947 7.04175 5.07666C7.04175 5.33447 6.93628 5.55713 6.72534 5.74463L4.61597 7.46729C5.15503 8.63916 6.03394 9.83447 7.25269 11.0532C8.47144 12.272 9.66675 13.1509 10.8386 13.6899L12.5613 11.5806C12.7488 11.3696 12.9714 11.2642 13.2292 11.2642C13.3464 11.2642 13.4519 11.2876 13.5457 11.3345L17.4832 13.022Z" fill="white"/>
</svg>

<svg width="19" height="19" fill="none" xmlns="http://www.w3.org/2000/svg"><path d="M17.483 13.022c.352.14.527.398.527.773a.39.39 0 01-.035.176l-.843 3.656a.612.612 0 01-.176.317.57.57 0 01-.281.246.678.678 0 01-.352.105c-4.5 0-8.344-1.593-11.531-4.78C1.604 10.326.01 6.482.01 1.982a.94.94 0 01.07-.352.967.967 0 01.247-.28.828.828 0 01.351-.177L4.335.331A.391.391 0 014.51.295c.375 0 .632.176.773.528L6.97 4.76a.7.7 0 01.07.317c0 .257-.105.48-.316.668L4.616 7.467c.539 1.172 1.418 2.367 2.637 3.586 1.218 1.219 2.414 2.098 3.586 2.637l1.722-2.11a.865.865 0 01.668-.316c.117 0 .223.024.317.07l3.937 1.688z" fill="#fff"/></svg>
